X:857
T:Reel 857
M:4/4
K:Ddor
L:1/8
de|fedc AGFE|FAGE D3E||FEDG FGAB|cAGA B2A2:||2FEFE FGAg|fdec d2|de|fedf edce|dcA=B c2AB|Aedc defg|afdf d2A2|dede fdde|fedc dcAG|FEDE FGAd|cAGE D2|
